X:1
T:D Major Daniel Belknap, 1800
T:Isaac Watts, 1709 (Hymn 148, Book 2)   86. 86. (C. M.)
T:Hampton
T:Transcribed from The Evangelical Harmony, 1800.
%%score [ 1 2 3 4 ]
L:1/8
M:4/4
K:D
V:1 treble nm="Treble" snm="Tr"
V:2 treble nm="Counter" snm="C"
V:3 treble-8 nm="Tenor" snm="T"
V:4 bass nm="Bass" snm="B"
V:1
 F4 F2 G2 | A3 A d2 cB | A3 A A2 d2 | c2 c2 d4 | d2 dd d2 f2 | ed cB c2 d2 | B2 Bc d2 A2 | A8 | %8
w: ||||||||
w: ||||||||
 z8 | z8 | z8 | z8 | z4 z2 d2 | B3 A G2 B2 | A2 A2 A2 d2 | e3 d c2 d2 | e6 d2 | A2 A2 A2 d2 | %18
w: ||||1.~'Tis|by thy in- ter-|ce- ding breath The|Spi- rit dwells with|men; *||
w: ||||2.~His|name for- bids my|sla- vish fear, His|grace re- moves my|sins. *||
 cB cd e2 d2 | d3 d A2 A2 | A8 |] %21
w: |||
w: |||
V:2
 D4 D2 D2 | D3 D D2 E2 | F3 E D2 D2 | G2 E2 F4 | D2 DE F2 F2 | E2 EF G2 FE | D2 F2 F2 E2 | F8 | %8
w: 1.~~Dear- est of|all the names a-|bove, My Je- sus|and my God!|Who can re- sist thy|heaven- ly * love, Or *|tri- fle with thy|blood?|
w: 2.~~Till God in|hu- man flesh I|see, My thoughts no|com- fort find;|The ho- ly, just, and|sa- cred * Three Are *|ter- rors to my|mind.|
 z8 | z8 | z8 | z8 | z8 | z8 | z8 | z8 | z4 z2 F2 | A2 A2 A2 FG | A2 A2 G2 FE | D3 D A2 G2 | F8 |] %21
w: ||||||||1.~'Tis|by thy in- ter- *|ce- ding breath The *|Spi- rit dwells with|men.|
w: ||||||||2.~His|name for- bids my *|sla- vish fear, His *|grace re- moves my|sins.|
V:3
 A4 A2 B2 | A3 F B2 c2 | d3 e f2 fd | e2 ec A4 | B2 BB A2 d2 | cB cd e2 f2 | g>f ed A>B c2 | d8 | %8
w: ||||||||
w: ||||||||
 z4 d4 | d>c BA B2 d2 | cB cd e2 f2 | e3 d c2 B2 | A6 z2 | z8 | z8 | z8 | z4 z2 d2 | f2 f2 f2 d2 | %18
w: 1.~~'Tis|by * the * me- rits|of * thy * death The|Fa- ther smiles a-|gain;||||||
w: 2.~~But|if * Im- * man- uel's|face * ap- * pear, My|hope, my joy be-|gins;||||||
 ed ef g2 f2 | g3 f ed c2 | d8 |] %21
w: |||
w: |||
V:4
 D,4 D,2 D,2 | D,3 C, B,,2 A,,2 | D,3 C, D,2 F,2 | E,2 A,,2 D,4 | G,2 G,G, F,2 D,2 | %5
 E,2 E,2 E,2 D,2 | G,2 G,2 A,2 A,,2 | D,8 | z4 D,4 | D,2 D,2 D,2 D,2 | A,2 A,2 A,2 D,2 | %11
 E,3 E, E,2 E,2 | A,,6 A,,2 | B,,3 B,, B,,2 A,,2 | D,2 D,2 D,2 F,2 | E,3 E, E,2 E,2 | A,6 A,2 | %17
 D2 D2 D2 D2 | A,2 A,2 A,2 B,2 | G,3 G, A,2 A,,2 | D,8 |] %21

